!!!COM: Hugo Wolf
!!!CNT: Deutscher
!!!TXO: Deutsche 
!!!OTL: Gebet
!!!ONM: No. 28
!!!ODT: 1888/
!!!LYR: Moericke
!!!ENC: Brian Bice
!!!YOR: 65 Songs for voice and piano, International Music Company, 1960
!!NB: Vocal melody and text only encoded.
**kern	**silbe
*clefG2	*
*k[f#c#g#d#]	*
*M4/4	*
=9	=9
{[4g#	{Herr!
8g#]	|
8r	.
4g#	schi-
4g#	-cke
=10	=10
4f#	was
4a	du
4g#}	willt,}
8r	.
{8g#	{ein
=11	=11
4b	Lie-
4b	-bes
4a	o-
4g#	-der
=12	=12
2g#	Lei-
4f#}	-des;}
4r	.
=13	=13
4r	.
{4a	{ich
4a	bin
4a	ver-
=14	=14
4g#	-gnu2gt,
4g#	das
([2ee	bei-
=15	=15
8ee]	|
8dd#)	|
8cc#}	-des}
{8b	{aus
4b	dei-
4a#	-nen
=16	=16
4.cc#	Ha2n-
8b	-den
2b}	quillt.}
=17	=17
4r	.
{4f#	{Wol-
4f#	-lest
4g#	mit
=18	=18
2f#	Freu-
4e#}	-den}
{4g#	{und
=19	=19
2b	wol-
4ddn	-lest
4cc#	mit
=20	=20
2b	Lei-
4a#}	-den}
{[4cc#	{mich
=21	=21
4cc#]	|
8ee	nicht
8ddn	|
4an	u2-
4g#	-ber-
=22	=22
4b#	-schu2t-
4cc#}	-ten!}
2r	.
=23	=23
4r	.
{4g#	{Doch
8r	.
4g#	in
8cc#	der
=24	=24
4cc#	Mit-
4b#}	-ten,}
2r	.
=25	=25
4r	.
{4bn	{doch
8r	.
4bn	in
8ee	der
=26	=26
4ee	Mit-
2dd#}	-ten}
{[4ee	{liegt
=27	=27
8ee]	|
8r	.
[4cc#	hol-
8cc#]	|
4a	-des
8f#	Be-
=28	=28
(4cc#	-schei-
2b	|
4d#)}	-den.}
*-	*-
